X: 5877
T: Calum Figheadair
R: reel
M: 4/4
K: Dminor
|:c|Addf cAAa|~fAAf cAAf|Addf cAAa|f^c d/d/d {^F}G3:|
f|defc d/d/d g2|fd d/d/d ecce|defc d/d/d ~g2|f^c d/d/d {^F}G3f|
defc d/d/d ~g2|fd d/d/d ecce|bagf dfga|f^c d/d/d {F}G3||
|:c|Ad d/d/d {=B}cA A/A/A|fA A/A/A {=B}cA A/A/A|Ad d/d/d {=B}cA A/A/A|f^c d/d/d {^F}G3:|
a|fddf ef g2|fddf ecca|fddf efga|f^c d/d/d {^F}G3a|
fddf ef g2|fddf ecca|bgaf dfga|f^c d/d/d {^F}G3||

